src/status/symbolic/network-wired-acquiring-symbolic.svg

<?xml version="1.0" encoding="UTF-8" standalone="no"?>
<svg
   width="16"
   height="16"
   version="1.1"
   id="svg8"
   sodipodi:docname="network-wired-acquiring-symbolic.svg"
   inkscape:version="1.3.2 (091e20ef0f, 2023-11-25)"
   xmlns:inkscape="http://www.inkscape.org/namespaces/inkscape"
   xmlns:sodipodi="http://sodipodi.sourceforge.net/DTD/sodipodi-0.dtd"
   xmlns="http://www.w3.org/2000/svg"
   xmlns:svg="http://www.w3.org/2000/svg">
  <defs
     id="defs8" />
  <sodipodi:namedview
     id="namedview8"
     pagecolor="#ffffff"
     bordercolor="#111111"
     borderopacity="1"
     inkscape:showpageshadow="0"
     inkscape:pageopacity="0"
     inkscape:pagecheckerboard="1"
     inkscape:deskcolor="#d1d1d1"
     inkscape:zoom="50.1875"
     inkscape:cx="8"
     inkscape:cy="8"
     inkscape:window-width="1920"
     inkscape:window-height="1011"
     inkscape:window-x="0"
     inkscape:window-y="0"
     inkscape:window-maximized="1"
     inkscape:current-layer="svg8" />
  <path
     d="m 4.5714286,6.8571429 a 1.1428571,1.1428571 0 1 0 0,2.2857142 1.1428571,1.1428571 0 0 0 0,-2.2857142 z M 8,6.8571429 A 1.1428571,1.1428571 0 1 0 8,9.1428571 1.1428571,1.1428571 0 0 0 8,6.8571429 Z m 3.428571,0 a 1.1428571,1.1428571 0 1 0 0,2.2857142 1.1428571,1.1428571 0 0 0 0,-2.2857142 z"
     fill="#363636"
     id="path1"
     style="display:inline;stroke-width:1.14286" />
  <g
     transform="translate(0,2)"
     fill="#363636"
     stroke-width="1.5"
     id="g8"
     style="display:none">
    <g
       transform="matrix(0.43738,0,0,0.5,-145.4,-266.68)"
       id="g4">
      <g
         transform="matrix(0,-1.0825,-1.0825,0,1464.7,557.15)"
         fill="#363636"
         stroke-width="1.5"
         id="g3">
        <g
           transform="matrix(1.1827e-4,0.032712,-0.032712,1.1827e-4,18.269,1034.4)"
           fill="#363636"
           stroke-width="1.5"
           id="g2">
          <path
             d="M 345.44,248.29 151.15,442.57 c -12.359,12.365 -32.397,12.365 -44.75,0 -12.354,-12.354 -12.354,-32.391 0,-44.744 L 278.31,225.916 106.4,54.016 c -12.354,-12.359 -12.354,-32.394 0,-44.748 12.354,-12.359 32.391,-12.359 44.75,0 l 194.29,194.28 c 6.177,6.18 9.262,14.271 9.262,22.366 0,8.099 -3.091,16.196 -9.267,22.373 z"
             fill="#363636"
             stroke-width="1.5"
             id="path2" />
        </g>
      </g>
    </g>
    <g
       transform="matrix(-0.43738,0,0,-0.5,161.4,278.68)"
       id="g7">
      <g
         transform="matrix(0,-1.0825,-1.0825,0,1464.7,557.15)"
         fill="#363636"
         stroke-width="1.5"
         id="g6">
        <g
           transform="matrix(1.1827e-4,0.032712,-0.032712,1.1827e-4,18.269,1034.4)"
           fill="#363636"
           stroke-width="1.5"
           id="g5">
          <path
             d="M 345.44,248.29 151.15,442.57 c -12.359,12.365 -32.397,12.365 -44.75,0 -12.354,-12.354 -12.354,-32.391 0,-44.744 L 278.31,225.916 106.4,54.016 c -12.354,-12.359 -12.354,-32.394 0,-44.748 12.354,-12.359 32.391,-12.359 44.75,0 l 194.29,194.28 c 6.177,6.18 9.262,14.271 9.262,22.366 0,8.099 -3.091,16.196 -9.267,22.373 z"
             fill="#363636"
             stroke-width="1.5"
             id="path4" />
        </g>
      </g>
    </g>
  </g>
  <path
     id="path1-3"
     d="M 6.2857143,0 C 5.6525721,0 5.1428571,0.50971497 5.1428571,1.1428571 v 3.4285715 c 0,0.6331421 0.509715,1.1428571 1.1428572,1.1428571 h 1.1428571 1.1428572 1.1428571 c 0.6331413,0 1.1428573,-0.509715 1.1428573,-1.1428571 V 1.1428571 C 10.857143,0.50971497 10.347427,0 9.7142857,0 Z m 0,1.1428571 H 9.7142857 V 4.5714286 H 8.5714286 7.4285714 6.2857143 Z M 1.1428571,10.285714 C 0.50971497,10.285714 0,10.79543 0,11.428571 v 3.428572 C 0,15.490285 0.50971497,16 1.1428571,16 h 3.4285715 c 0.6331421,0 1.1428571,-0.509715 1.1428571,-1.142857 v -3.428572 c 0,-0.633141 -0.509715,-1.142857 -1.1428571,-1.142857 H 3.4285714 2.2857143 Z m 10.2857139,0 c -0.633141,0 -1.142857,0.509716 -1.142857,1.142857 v 3.428572 C 10.285714,15.490285 10.79543,16 11.428571,16 h 3.428572 C 15.490285,16 16,15.490285 16,14.857143 V 11.428571 C 16,10.79543 15.490285,10.285714 14.857143,10.285714 H 14.285714 13.714286 12.571429 Z M 1.1428571,11.428571 h 3.4285715 v 3.428572 H 1.1428571 Z m 10.2857139,0 h 3.428572 v 3.428572 h -3.428572 z"
     style="fill:#363636;fill-opacity:1;stroke-width:1.14286" />
</svg>

<?xml version="1.0" encoding="UTF-8"?>
<svg id="svg8" width="16" height="16" version="1.1" xmlns="http://www.w3.org/2000/svg">
 <path id="path1" d="m4.5714 6.8571a1.1429 1.1429 0 1 0 0 2.2857 1.1429 1.1429 0 0 0 0-2.2857zm3.4286 0a1.1429 1.1429 0 1 0 0 2.2857 1.1429 1.1429 0 0 0 0-2.2857zm3.4286 0a1.1429 1.1429 0 1 0 0 2.2857 1.1429 1.1429 0 0 0 0-2.2857z" fill="#363636" stroke-width="1.1429"/>
 <g id="g8" transform="translate(0,2)" display="none" fill="#363636" stroke-width="1.5">
  <g id="g4" transform="matrix(.43738 0 0 .5 -145.4 -266.68)">
   <g id="g3" transform="matrix(0,-1.0825,-1.0825,0,1464.7,557.15)" fill="#363636" stroke-width="1.5">
    <g id="g2" transform="matrix(.00011827 .032712 -.032712 .00011827 18.269 1034.4)" fill="#363636" stroke-width="1.5">
     <path id="path2" d="m345.44 248.29-194.29 194.28c-12.359 12.365-32.397 12.365-44.75 0-12.354-12.354-12.354-32.391 0-44.744l171.91-171.91-171.91-171.9c-12.354-12.359-12.354-32.394 0-44.748 12.354-12.359 32.391-12.359 44.75 0l194.29 194.28c6.177 6.18 9.262 14.271 9.262 22.366 0 8.099-3.091 16.196-9.267 22.373z" fill="#363636" stroke-width="1.5"/>
    </g>
   </g>
  </g>
  <g id="g7" transform="matrix(-.43738 0 0 -.5 161.4 278.68)">
   <g id="g6" transform="matrix(0,-1.0825,-1.0825,0,1464.7,557.15)" fill="#363636" stroke-width="1.5">
    <g id="g5" transform="matrix(.00011827 .032712 -.032712 .00011827 18.269 1034.4)" fill="#363636" stroke-width="1.5">
     <path id="path4" d="m345.44 248.29-194.29 194.28c-12.359 12.365-32.397 12.365-44.75 0-12.354-12.354-12.354-32.391 0-44.744l171.91-171.91-171.91-171.9c-12.354-12.359-12.354-32.394 0-44.748 12.354-12.359 32.391-12.359 44.75 0l194.29 194.28c6.177 6.18 9.262 14.271 9.262 22.366 0 8.099-3.091 16.196-9.267 22.373z" fill="#363636" stroke-width="1.5"/>
    </g>
   </g>
  </g>
 </g>
 <path id="path1-3" d="m6.2857 0c-0.63314 0-1.1429 0.50971-1.1429 1.1429v3.4286c0 0.63314 0.50972 1.1429 1.1429 1.1429h3.4286c0.63314 0 1.1429-0.50972 1.1429-1.1429v-3.4286c0-0.63314-0.50972-1.1429-1.1429-1.1429zm0 1.1429h3.4286v3.4286h-3.4286zm-5.1429 9.1429c-0.63314 0-1.1429 0.50972-1.1429 1.1429v3.4286c0 0.63314 0.50971 1.1429 1.1429 1.1429h3.4286c0.63314 0 1.1429-0.50972 1.1429-1.1429v-3.4286c0-0.63314-0.50972-1.1429-1.1429-1.1429h-2.2857zm10.286 0c-0.63314 0-1.1429 0.50972-1.1429 1.1429v3.4286c0 0.63314 0.50972 1.1429 1.1429 1.1429h3.4286c0.63314 0 1.1429-0.50972 1.1429-1.1429v-3.4286c0-0.63314-0.50972-1.1429-1.1429-1.1429h-2.2857zm-10.286 1.1429h3.4286v3.4286h-3.4286zm10.286 0h3.4286v3.4286h-3.4286z" fill="#363636" stroke-width="1.1429"/>
</svg>
